icon/fa/circle-radiation.svg

<svg xmlns="http://www.w3.org/2000/svg" viewBox="0 0 512 512"><!--! Font Awesome Free 6.1.2 by @fontawesome - https://fontawesome.com License - https://fontawesome.com/license/free (Icons: CC BY 4.0, Fonts: SIL OFL 1.1, Code: MIT License) Copyright 2022 Fonticons, Inc.--><path d="m226.4 208.6-41.6-66.7c-5.2-8.2-16.5-9.9-24.1-3.7-29.9 24.1-50.6 59.2-55.6 99.2-1.2 9.8 6.1 18.6 15.9 18.6h79c0-20 10.6-37.4 26.4-47.4zM256 288c17.67 0 32-14.33 32-32s-14.33-32-32-32c-17.7 0-32 14.3-32 32s14.3 32 32 32zm29.6 15.3c-9.5 5.4-18.7 8.7-29.6 8.7-10.89 0-20.98-3.252-29.58-8.65l-41.74 66.8c-5.211 8.338-1.613 19.07 7.27 23.29C211.4 402.7 233.1 408 256 408c22.97 0 44.64-5.334 64.12-14.59 8.883-4.219 12.48-14.95 7.262-23.29L285.6 303.3zm65.8-165.1c-7.604-6.145-18.86-4.518-24.04 3.77l-41.71 66.67C301.4 218.6 312 236 312 256h78.96c9.844 0 17.11-8.791 15.91-18.56-4.97-39.94-25.57-75.04-55.47-99.24zM256 16C123.4 16 16 123.4 16 256s107.4 240 240 240 240-107.4 240-240S388.6 16 256 16zm0 416c-97.05 0-176-78.99-176-176S158.1 80 256 80s176 78.95 176 176-79 176-176 176z"/></svg>

<svg xmlns="http://www.w3.org/2000/svg" viewBox="0 0 512 512" height="1em" width="1em">
<!--! Font Awesome Free 6.1.2 by @fontawesome - https://fontawesome.com License - https://fontawesome.com/license/free (Icons: CC BY 4.0, Fonts: SIL OFL 1.1, Code: MIT License) Copyright 2022 Fonticons, Inc.-->
  <path d="M226.4 208.6L184.8 141.9C179.6 133.7 168.3 132 160.7 138.2C130.8 162.3 110.1 197.4 105.1 237.4C103.9 247.2 111.2 256 121 256H200C200 236 210.6 218.6 226.4 208.6zM256 288c17.67 0 32-14.33 32-32s-14.33-32-32-32C238.3 224 224 238.3 224 256S238.3 288 256 288zM285.6 303.3C276.1 308.7 266.9 312 256 312c-10.89 0-20.98-3.252-29.58-8.65l-41.74 66.8c-5.211 8.338-1.613 19.07 7.27 23.29C211.4 402.7 233.1 408 256 408c22.97 0 44.64-5.334 64.12-14.59c8.883-4.219 12.48-14.95 7.262-23.29L285.6 303.3zM351.4 138.2c-7.604-6.145-18.86-4.518-24.04 3.77l-41.71 66.67C301.4 218.6 312 236 312 256h78.96c9.844 0 17.11-8.791 15.91-18.56C401.9 197.5 381.3 162.4 351.4 138.2zM256 16C123.4 16 16 123.4 16 256s107.4 240 240 240c132.6 0 240-107.4 240-240S388.6 16 256 16zM256 432c-97.05 0-176-78.99-176-176S158.1 80 256 80s176 78.95 176 176S353 432 256 432z"/>
</svg>
